X: 26
T: Acemaşîrân Yürüksemâî
C: Hüseyin Fahreddin Dede
O: Turkey
F: http://compmusic.upf.edu/node/140
N: acemasiran--yuruksemai--yuruksemai_ii----huseyin_fahreddin_dede
N: makam= acemasiran
N: form= yuruksemai
N: usul= yuruksemai_ii = 6/8
M: 6/8
L: 1/16
K: C _B   
Q: 1/4=216
%%MIDI tuningsystem comma53
f2f2 c2f2 f2c2  | f2e2 f2g2 a4  | a2g2 f2a2 g2f2  | \
w:   |   |   | 
a2a2 a2fg a4  | 
w:   | 
f2f2 c2f2 f2c2  | f2e2 f2g2 a4  | f2g2 a2g2 a4  | \
w:   |   |   | 
f6c6  | c2_1/4B2 c2B2 c2d2  | 
w:   |   | 
_e2d2 c2B2 A4  | F2G2 A2G2 A4  | F4 c2_1/4B2 c4  | \
w:   |   |   | 
c2_1/4B2 c2B2 c2d2  | _e2d2 c2B2 A4  | 
w:   |   | 
F2G2 A2G2 A4  | F4 F2F2 F4  | f2f2 c2f2 f2c2  | \
w:   |   |   | 
f2e2 f2g2 a4  | a2g2 f2a2 g2f2  | 
w:   |   | 
a2a2 a2fg a4  | f2f2 c2f2 f2c2  | f2e2 f2g2 a4  | \
w:   |   |   | 
f2g2 a2g2 a4  | 
w:   | 
f6c6  | c2_1/4B2 c2B2 c2d2  | _e2d2 c2B2 A4  | \
w:   |   |   | 
F2G2 A2G2 A4  | F4 c2_1/4B2 c4  | 
w:   |   | 
c2_1/4B2 c2B2 c2d2  | _e2d2 c2B2 A4  | \
w:   |   | 
F2G2 A2G2 A4  | F4 F2F2 F4  | |


